X: 286
T: Planxty George Brabazon
I: Planxty George Brabazon	R-24	G	reel
M: C|
R: reel
K: G
e| "G"d2G2 cBAG| d2G2 cBAG| "Am"e2A2 ABcd| e2A2 "D7"ABcd|
    "G"edcB "C"g2fe| "G"edcB cBAG| BAGE "D"DEGA| "G"B2G2 G2 :|
|:ga| "G"b2gb "B"a2fa| "Em"g2eg edcB| "Am"e2A2 ABcd| "D7"e2A2 A2ga|
    "G"b2gb "B"a2fa| "Em"g2eg edcB| "Am"cBAG "D7"DEGA| "G"B2G2 G2 :|

